X: 23535
T: Lieutenant Maguire's
R: jig
M: 6/8
K: Edorian
|:D|EEE G2A|BEE BEE|DDD F2G|ADD ADD|
EEE G2A|BEE BEE|~B3 A2F|GEE E2:|
|:F|G2A BGG|dGG BGG|G2A BGG|AFD DEF|
G2A BGG|dGG BGG|ABA ~B2A|GEE E2:|
|:D|~E3 G2A|~B2A Bcd|~D3 F2G|FAA AFD|
~E3 G2A|~B2A Bcd|ABA ~B2A|GEE E2:|
|:B|EEE EBE|EdE BEE|DDD DAD|DdD ADD|
EEE EBE|EdE BEE|~A3 B2A|GEE E2:|

